X:3
T:Come Hither to go Yonder
R:reel
C:Bill Monroe
S:Dan Crary Frets article
M:4/4
L:1/8
K:A
(3E=F^F|"A"A4 A=GE=C|A,8|"D7"=C4 B,A,B,C|"A"A,4  A,E=G^G|A4 B=c^ce|cB
A2 BeA=G^G|"E"E4 B,A,=G,^G,|E,4 E,E=G^G|"A"A=GEA GEDG|ED=CE DCB,D|"D7"
=CA,B,C B,A,F,E,|"A"A,6 E2|A2 A,2 =G2 A,2|D^DE=G (3ED=D =C2|A,6||
ae=cB|"Am"A2 z2 =cBA=G|E2 z2 AG E2|"Dm"D2 z2 ED =C2|"Am"A,2 z2 ae=cB|A2
 z B (3Be=cB A=G|E z=G (3GAG ed|"E"DE GBee B,A,F,=F,|E,2 GBee 
(3=c'ee (3bee|"Am"a2 ze (3aee (3=cBe|A2 z =G (3AGB (EDG|"Dm"D2 A2D2=f2 (3E
DD (3=CA,A,|"Am"A,2 z2 ae=cB|AB =ceB A=GED|"E"DE GBee ED B,=C|"am"A,
 A2=c2e2E,E Acee|A4||
